X:1
T:Psalm 143
T:V 6
L:1/4
M:16/4
I:linebreak $
K:C
V:1 treble nm="Pipe Organ" snm="Org."
V:1
 D2 A2 A2 G A B c B2 A3 z |$[M:14/4] d2 d d c B A c B2 A3 z |$ D2 A A G A c2 B2 A3 z |$ %3
w: Ver- hoor my, HEER; wil nie meer wag nie;|en laat my gees tog nie ver- smag nie!|Ver- berg u aan- skyn nie vir my,|
 d2 d d c B A c B2 A3 z |$ c2 B A G F G2 E2 D4 |] %5
w: dat ek soos die nie word ge- ag nie|wat in die kuil het af- ge- gly!|

